X:1
T:Title
%%score 1 { 2 | 3 }
L:1/8
Q:1/4=80
M:3/4
K:F
V:1 treble nm="Grand Piano, Staff 1"
V:2 bass nm="Choir Pad, Here Is Love"
V:3 bass 
V:1
 [CF][DG] [FA]3 [CF] | [DG][FA] [DG] [DF]3- | [DF]>[DF]- [DF]/[B,D][A,C]/- [A,C]2- | %3
w: By~Robert~Lowry,~1876 * * *|||
 [A,C]/[CF][CE]/- [CE]/[CF][EG]/- [EG]2- | [EG]2- [EG]/[DF][EG]/- [EG]<[FA]- | %5
w: ||
 [FA]>[CF]- [CF]/[DG][FA]/- [FA]/[DG][DF]/- | [DF]4 [DF][B,D] | [A,C]3 [CF] [EG][CE] | %8
w: |||
 [CF]4- [CF][FA] | [FB] [Fc]3 [FA][GB] | [FA][FA] [EG]4- | [EG]/[EG][FA]/- [FA]<[FB]- [FB]>[DG]- | %12
w: ||||
 [DG]/[EA][EB]/- [EB]<[FA]- [FA]2- | [FA]>[FA]- [FA]/[EG][DF]/- [DF]2- | %14
w: ||
 [DF]/[DG][DF]/- [DF]/[CE][B,D]/- [B,D]<[DF]- | [DF]3 [DF] [DG][FA]- | [FA]2 [DF][EG] [CE][CF]- | %17
w: |||
 [CF]6 |] %18
w: |
V:2
 A,B, C3 A, | B,C B, B,3- | B,>B,,- B,,/F,F,/- F,2- | F,/A,G,/- G,/A,[K:treble]C/- C2- | %4
 C2- C/B,C/- C<C- | C>[K:bass]A,- A,/B,C/- C/B,B,/- | B,4 B,F, | F,3 A, CG, | A,4- A,C | %9
 B, A,3[K:treble] CD | CC C4- | C/CC/- C<D- D>B,- | B,/CC/- C<C- C2- | C>C- C/C[K:bass]A,/- A,2- | %14
 A,/A,A,/- A,/A,F,/- F,<B,- | B,3 B, B,C- | C2 A,C G,A,- | A,6 |] %18
V:3
 F,F, F,3 F, | F,F, z2 z2 | z2 z/ B,,F,,/- F,,2- | F,,/F,,F,/- F,/F,C,/- C,2- | %4
 C,2- C,/C,C,/- C,<F,- | F,>F,- F,/F,F,/- F,/ z/ z | z2 z2 B,,B,, | F,,3 F,, C,C, | F,4- F,F, | %9
 F, F,3 F,F, | F,C, C,4- | C,/C,C,/- C,<G,- G,>G,- | G,/C,C,/- C,<F,- F,2- | %13
 F,>F,- F,/E,D,/- D,2- | D,/D,D,/- D,/C,B,,/- B,,<B,,- | B,,3 B,, B,,F,- | F,2 F,C, C,F,- | F,6 |] %18

